X: 1403
T: Mâhur Sazsemâîsi
C: Gazi Giray Han
O: Turkey
F: http://compmusic.upf.edu/node/140
N: mahur--sazsemaisi--aksaksemai----gazi_giray_han
N: makam= mahur
N: form= sazsemaisi
N: usul= aksaksemai = 10/8
M: 10/8
L: 1/16
K: C ^9/8f   
Q: 1/4=120
%%MIDI tuningsystem comma53
g4 a2g4fg f2e4d2  | e4 d2e4fg f2g4z2  | \
w:  1. HANE  |   | 
g4 f2g3fg2 a2b2 c'2d'2  | 
w:   | 
b4 g2a4ag f2g4z2  | fgf2 g2a4b4ba g2g2  | \
w:   |    TESLİM   | 
a4 agf4g4gf e2e2  | 
w:   | 
f4 fed4e4d4c2  | d4 c2e2 d2{e}d2 c2B4A2  | \
w:   |   | 
G4 F2G2 F2G2 A2B2 c2d2  | 
w:   | 
B4 G2A4AG F2G4z2  | g4 a2b2 aga2 gfe4f2  | \
w:   |  2. HANE  | 
g4 a2b3ga2 gfg4z2  | 
w:   | 
g4 a2b4b4b4a2  | g4 g2ab agbd' c'ba4z2  | \
w:   |   | 
f4 g2a2 g2g2 f2e4f2  | 
w:   | 
g4 a2b2 g2a2 f2g4z2  | d4 e2f4g4f4e2  | \
w:   |   | 
d4 d2e3de2 ^c2d4z2  | 
w:   | 
d4 e2f4g2 a2g2 f2e2  | f2g2 fed4e2 =f2ed c2c2  | \
w:   |   | 
d2e2 ddB4c2 d2cB A4  | 
w:   | 
B2c2 BAG4d2 e2d4z2  | G4 F2G2 F2G2 A2B2 c2d2  | \
w:   |   | 
B4 G2A4AG F2G4z2  | 
w:   | 
fgf2 g2a4b4ba g2g2  | a4 agf4g4gf e2e2  | \
w:    TESLİM   |   | 
f4 fed4e4d4c2  | 
w:   | 
d4 c2e2 d2{e}d2 c2B4A2  | G4 F2G2 F2G2 A2B2 c2d2  | \
w:   |   | 
B4 G2A4AG F2G4z2  | 
w:   | 
d4 g2f4g2 a2gf e2e2  | f2g2 fed4e2 =f2ed c2d2  | \
w:  3. HANE  |   | 
e4 d2e4f4e4f2  | 
w:   | 
g4 a2b2 g2a2 f2g4z2  | g4 f2g2 f2g2 a2b2 c'2d'2  | \
w:   |   | 
b4 g2a4ag f2g4z2  | 
w:   | 
a4 b2c'2 d'2c'2 b2a4b2  | g4 a2b2 c'2b2 a2g4z2  | \
w:   |   | 
g4 f2g2 f2g2 a2b2 c'2d'2  | 
w:   | 
b4 g2a4ag f2g4z2  | fgf2 g2a4b4ba g2g2  | \
w:   |    TESLİM   | 
a4 agf4g4gf e2e2  | 
w:   | 
f4 fed4e4d4c2  | d4 c2e2 d2{e}d2 c2B4A2  | \
w:   |   | 
G4 F2G2 F2G2 A2B2 c2d2  | 
w:   | 
B4 G2A4AG F2G4z2  | z24  | G4G2G2G4G4d6z2  | \
w:   |  |  4. HANE  | 
d2e2d2^c2_7/8B2A2B2c2d6z2  | 
w:   | 
G4G2G2G4G4d6e2  | d2^c2_7/8B2d2c2B2A2B2G6z2  | \
w:   |   | 
^c2d2c2d2e4z4f2g2a4  | 
w:   | 
f2g2e2f2e2d2^c4d6z2  | G4G2G2G4G4B2c2B2A2  | \
w:   |   | 
B4A2G2A4G2F2G6z2  | 
w:   | 
z20  | fgf2 g2a4b4ba g2g2  | a4 agf4g4gf e2e2  | \
w:  |    TESLİM   |   | 
f4 fed4e4d4c2  | 
w:   | 
d4 c2e2 d2{e}d2 c2B4A2  | G4 F2G2 F2G2 A2B2 c2d2  | \
w:   |   | 
B4 G2A4AG F2G4z2  | 
w:   | 
|


